dist/img/svg/ic_pen-ymaps.svg

<svg width="46" height="64" viewBox="0 0 46 64" fill="none" xmlns="http://www.w3.org/2000/svg">
<path d="M24.0306 2.28906C11.9163 2.28906 2.06152 12.0011 2.06152 23.9371C2.06152 38.7531 22.1554 60.5024 22.9915 61.4224C23.7762 62.2837 23.7302 62.2837 24.5149 61.4224C25.3538 60.5024 45.9996 38.7557 45.9996 23.9371C45.9996 12.0011 36.1448 2.28906 24.0306 2.28906Z" fill="#878787"/>
<path d="M24.3527 37.3337C27.9409 37.3337 31.3821 35.9289 33.9194 33.4284C36.4566 30.9279 37.8821 27.5365 37.8821 24.0003C37.8821 20.4641 36.4566 17.0727 33.9194 14.5722C31.3821 12.0717 27.9409 10.667 24.3527 10.667C20.7644 10.667 17.3232 12.0717 14.7859 14.5722C12.2487 17.0727 10.8232 20.4641 10.8232 24.0003C10.8232 27.5365 12.2487 30.9279 14.7859 33.4284C17.3232 35.9289 20.7644 37.3337 24.3527 37.3337V37.3337Z" fill="white"/>
<path d="M24.3532 29.3337C27.342 29.3337 29.7649 26.9458 29.7649 24.0003C29.7649 21.0548 27.342 18.667 24.3532 18.667C21.3643 18.667 18.9414 21.0548 18.9414 24.0003C18.9414 26.9458 21.3643 29.3337 24.3532 29.3337Z" fill="#878787"/>
</svg>

<svg width="46" height="64" viewBox="0 0 46 64" fill="none" xmlns="http://www.w3.org/2000/svg"><path d="M24.03 2.29C11.917 2.29 2.063 12 2.063 23.936c0 14.816 20.093 36.565 20.93 37.485.784.862.738.862 1.523 0C25.354 60.502 46 38.756 46 23.937 46 12.001 36.145 2.29 24.03 2.29z" fill="#878787"/><path d="M24.353 37.334c3.588 0 7.03-1.405 9.566-3.906A13.236 13.236 0 0037.882 24c0-3.536-1.425-6.927-3.963-9.428a13.63 13.63 0 00-9.566-3.905c-3.589 0-7.03 1.405-9.567 3.905A13.236 13.236 0 0010.823 24c0 3.537 1.426 6.928 3.963 9.428a13.631 13.631 0 009.567 3.906z" fill="#fff"/><path d="M24.353 29.334c2.989 0 5.412-2.388 5.412-5.334 0-2.945-2.423-5.333-5.412-5.333S18.941 21.055 18.941 24c0 2.946 2.423 5.334 5.412 5.334z" fill="#878787"/></svg>
